X: 415
T: Boll Weevil Drag
B: jims roots
M:2/4
L:1/8
Q: 1/4=100
K:C
V:1 
%S:Frank Maloy &#8211; Devil's Box (1987)
|: ef | "C"g2gg agef | gage cdef | gege aged | cdcA GAce |
g2gg agef | gage cAdc | "G"B2G2 A2B2 | "C"[c2e][ce][ce] [c2e] :|
|: gf | "C"e[c2e][ce] [c2e]cB | "F"A[F2A][FA] [F2A]dc | "G"BGBc ddBd | "C"cBcd efgf |
"C"e[c2e][ce] [c2e]cB | "F"A[F2A][FA] [F2A]dc | "C"BGBc dcBd | "G"cBcd c :|
|: EF | "C"G2GG AGEF | GAGE CDEF | GEGE AGED | CDCA, G,A,CE |
G2GG AGEF | GAGE CG,DC | "G"B,2G,2 A,2B,2 | "C"C2CC  [C2E] :|
|: (3G,A,B, | "C"C2C2 ECDE | "F"FEFG AGFD | "G"G^FGA BGAB | "C"cBcd edcA |
"C"CB,CD ECDE | "F"FEFG AGFD | "C"G^FGA BGAB | "G"cBcd "C"c2 :|
% abcbook-tune_id 6298c2456d14428583fa4dbe


% abcbook-boost 0
% abcbook-tablature 
% abcbook-transpose 
% abcbook-lastupdated 1654178373434
% abcbook-soundfonts 
% abcbook-repeats 1


